static/img/misc/min-star-county.svg

<svg fill="none" height="36" viewBox="0 0 37 36" width="37" xmlns="http://www.w3.org/2000/svg"><path d="m18.3003 3 5.0432 9.5586 10.6492 1.8426-7.5323 7.7502 1.5383 10.6974-9.6984-4.7688-9.69846 4.7688 1.53836-10.6974-7.53234-7.7502 10.64924-1.8426z" stroke="#8a2432" stroke-width="2"/></svg>

<svg width="37" height="36" viewBox="0 0 37 36" fill="none" xmlns="http://www.w3.org/2000/svg">
<path d="M18.3003 3L23.3435 12.5586L33.9927 14.4012L26.4604 22.1514L27.9987 32.8488L18.3003 28.08L8.60184 32.8488L10.1402 22.1514L2.60786 14.4012L13.2571 12.5586L18.3003 3Z" stroke="#8A2432" stroke-width="2"/>
</svg>
